X: 14727
T: Gan Ainm
R: jig
M: 6/8
K: Gmajor
|:BGB BBd|BGB ABc|BGB BBd|d^cd e=cA|
BGB BBd|BGB ABc|BAG FGE|FFD D3:|
|:fef d2 A|BGB B^cd|~A3 dfa|gfg e3|
fef d2 A|BGB B^cd|edA GBA|AAF D3:|

